Axios.svg

<svg width="188" height="28" viewBox="0 0 188 28" fill="none" xmlns="http://www.w3.org/2000/svg">
<path d="M93.295 3.65206L86.356 9.30495H90.8876V27.68L93.295 25.7411V3.65206Z" fill="#5A29E4"/>
<path d="M95.295 24.0997L102.356 18.305H97.6975V0.350052L95.295 2.02275V24.0997Z" fill="#5A29E4"/>
<path d="M182.695 6.95295C183.495 7.36895 184.071 7.72095 184.423 8.00895L186.919 3.25695C185.671 2.48895 184.167 1.80095 182.407 1.19295C180.679 0.584955 178.807 0.280952 176.791 0.280952C174.871 0.280952 173.095 0.600952 171.463 1.24095C169.863 1.88095 168.583 2.82495 167.623 4.07295C166.695 5.32095 166.231 6.87295 166.231 8.72895C166.231 10.809 166.887 12.409 168.199 13.529C169.543 14.617 171.591 15.513 174.343 16.217C176.551 16.793 178.327 17.321 179.671 17.801C181.047 18.249 181.735 19.001 181.735 20.057C181.735 21.625 180.263 22.409 177.319 22.409C175.847 22.409 174.455 22.233 173.143 21.881C171.831 21.529 170.679 21.097 169.687 20.585C168.727 20.073 168.039 19.609 167.623 19.193L165.031 24.233C166.695 25.289 168.599 26.121 170.743 26.729C172.887 27.337 175.047 27.641 177.223 27.641C179.111 27.641 180.871 27.385 182.503 26.873C184.135 26.329 185.447 25.465 186.439 24.281C187.463 23.065 187.975 21.4649 187.975 19.4809C187.975 17.8489 187.591 16.537 186.823 15.545C186.087 14.521 185.015 13.705 183.607 13.097C182.231 12.489 180.599 11.945 178.711 11.465C176.567 10.953 174.935 10.489 173.815 10.073C172.727 9.65695 172.183 8.95295 172.183 7.96095C172.183 6.26495 173.687 5.41695 176.695 5.41695C177.815 5.41695 178.903 5.57695 179.959 5.89695C181.015 6.18495 181.927 6.53695 182.695 6.95295Z" fill="#5A29E4"/>
<path fill-rule="evenodd" clip-rule="evenodd" d="M132.182 27.497C130.07 27.497 128.15 27.129 126.422 26.393C124.694 25.625 123.205 24.601 121.957 23.321C120.709 22.009 119.749 20.537 119.077 18.905C118.406 17.273 118.069 15.593 118.069 13.865C118.069 12.105 118.421 10.409 119.125 8.77695C119.829 7.14495 120.822 5.70496 122.102 4.45695C123.382 3.17695 124.885 2.16895 126.613 1.43295C128.341 0.696953 130.229 0.328949 132.277 0.328949C134.389 0.328949 136.31 0.728952 138.038 1.52895C139.766 2.29695 141.238 3.33695 142.454 4.64895C143.702 5.92895 144.661 7.38495 145.333 9.01695C146.005 10.649 146.342 12.3129 146.342 14.0089C146.342 15.7689 145.99 17.465 145.286 19.097C144.582 20.697 143.589 22.137 142.309 23.417C141.061 24.665 139.574 25.657 137.846 26.393C136.118 27.129 134.23 27.497 132.182 27.497ZM123.925 13.913C123.925 15.353 124.262 16.729 124.934 18.041C125.605 19.321 126.549 20.361 127.765 21.161C129.013 21.961 130.501 22.361 132.229 22.361C133.989 22.361 135.477 21.945 136.693 21.113C137.91 20.249 138.837 19.177 139.477 17.8969C140.117 16.5849 140.438 15.241 140.438 13.865C140.438 12.425 140.102 11.0649 139.43 9.78495C138.758 8.50495 137.798 7.48095 136.549 6.71295C135.333 5.91295 133.878 5.51295 132.182 5.51295C130.422 5.51295 128.917 5.92895 127.669 6.76095C126.453 7.59295 125.525 8.64896 124.885 9.92896C124.245 11.209 123.925 12.537 123.925 13.913Z" fill="#5A29E4"/>
<path fill-rule="evenodd" clip-rule="evenodd" d="M0 27.305L11.712 0.472954H16.464L28.128 27.305H21.984L19.296 21.017H8.88L6.192 27.305H0ZM14.112 7.52895L10.176 15.977H17.904L14.112 7.52895Z" fill="#5A29E4"/>
<path d="M50.8211 0.472954L58.2131 9.97695L65.6051 0.472954H71.8931L61.2851 14.057L71.5571 27.305H65.2691L58.2131 18.185L51.2051 27.305H44.8211L55.1411 14.057L44.4851 0.472954H50.8211Z" fill="#5A29E4"/>
</svg>

<svg xmlns="http://www.w3.org/2000/svg" viewBox="0 0 128 128">
  <g transform="matrix(0.65827504,0,0,0.65827504,2,53.815056)">
    <path
       d="m 93.295,3.65206 -6.939,5.65289 h 4.5316 V 27.68 l 2.4074,-1.9389 z"
       fill="#5a29e4" />
    <path
       d="m 95.295,24.0997 7.061,-5.7947 H 97.6975 V 0.350052 L 95.295,2.02275 Z"
       fill="#5a29e4" />
    <path
       d="m 182.695,6.95295 c 0.8,0.416 1.376,0.768 1.728,1.056 l 2.496,-4.752 c -1.248,-0.768 -2.752,-1.456 -4.512,-2.064 -1.728,-0.607995 -3.6,-0.911998 -5.616,-0.911998 -1.92,0 -3.696,0.32 -5.328,0.959998 -1.6,0.64 -2.88,1.584 -3.84,2.832 -0.928,1.248 -1.392,2.8 -1.392,4.656 0,2.08005 0.656,3.68005 1.968,4.80005 1.344,1.088 3.392,1.984 6.144,2.688 2.208,0.576 3.984,1.104 5.328,1.584 1.376,0.448 2.064,1.2 2.064,2.256 0,1.568 -1.472,2.352 -4.416,2.352 -1.472,0 -2.864,-0.176 -4.176,-0.528 -1.312,-0.352 -2.464,-0.784 -3.456,-1.296 -0.96,-0.512 -1.648,-0.976 -2.064,-1.392 l -2.592,5.04 c 1.664,1.056 3.568,1.888 5.712,2.496 2.144,0.608 4.304,0.912 6.48,0.912 1.888,0 3.648,-0.256 5.28,-0.768 1.632,-0.544 2.944,-1.408 3.936,-2.592 1.024,-1.216 1.536,-2.8161 1.536,-4.8001 0,-1.632 -0.384,-2.9439 -1.152,-3.9359 -0.736,-1.024 -1.808,-1.84 -3.216,-2.448 -1.376,-0.608 -3.008,-1.152 -4.896,-1.632 -2.144,-0.512 -3.776,-0.976 -4.896,-1.392 -1.088,-0.41605 -1.632,-1.12005 -1.632,-2.11205 0,-1.696 1.504,-2.544 4.512,-2.544 1.12,0 2.208,0.16 3.264,0.48 1.056,0.288 1.968,0.64 2.736,1.056 z"
       fill="#5a29e4" />
    <path 
       d="m 132.182,27.497 c -2.112,0 -4.032,-0.368 -5.76,-1.104 -1.728,-0.768 -3.217,-1.792 -4.465,-3.072 -1.248,-1.312 -2.208,-2.784 -2.88,-4.416 -0.671,-1.632 -1.008,-3.312 -1.008,-5.04 0,-1.76 0.352,-3.456 1.056,-5.08805 0.704,-1.632 1.697,-3.07199 2.977,-4.32 1.28,-1.28 2.783,-2.288 4.511,-3.024 1.728,-0.735997 3.616,-1.104001 5.664,-1.104001 2.112,0 4.033,0.400003 5.761,1.200001 1.728,0.768 3.2,1.808 4.416,3.12 1.248,1.28 2.207,2.736 2.879,4.368 0.672,1.63205 1.009,3.29595 1.009,4.99195 0,1.76 -0.352,3.4561 -1.056,5.0881 -0.704,1.6 -1.697,3.04 -2.977,4.32 -1.248,1.248 -2.735,2.24 -4.463,2.976 -1.728,0.736 -3.616,1.104 -5.664,1.104 z m -8.257,-13.584 c 0,1.44 0.337,2.816 1.009,4.128 0.671,1.28 1.615,2.32 2.831,3.12 1.248,0.8 2.736,1.2 4.464,1.2 1.76,0 3.248,-0.416 4.464,-1.248 1.217,-0.864 2.144,-1.936 2.784,-3.2161 0.64,-1.312 0.961,-2.6559 0.961,-4.0319 0,-1.44 -0.336,-2.8001 -1.008,-4.08005 -0.672,-1.28 -1.632,-2.304 -2.881,-3.072 -1.216,-0.8 -2.671,-1.2 -4.367,-1.2 -1.76,0 -3.265,0.416 -4.513,1.248 -1.216,0.832 -2.144,1.88801 -2.784,3.16801 -0.64,1.28004 -0.96,2.60804 -0.96,3.98404 z"
       fill="#5a29e4" />
    <path 
       d="M 0,27.305 11.712,0.472954 h 4.752 L 28.128,27.305 H 21.984 L 19.296,21.017 H 8.88 L 6.192,27.305 Z M 14.112,7.52895 10.176,15.977 h 7.728 z"
       fill="#5a29e4" />
    <path
       d="m 50.8211,0.472954 7.392,9.503996 7.392,-9.503996 h 6.288 L 61.2851,14.057 71.5571,27.305 h -6.288 l -7.056,-9.12 -7.008,9.12 h -6.384 L 55.1411,14.057 44.4851,0.472954 Z"
       fill="#5a29e4" />
  </g>
</svg>
